src/Pure/16/symbolic/apps/libreoffice-impress-symbolic.svg

<?xml version="1.0" encoding="UTF-8"?>
<svg width="16" height="16" version="1.1" xmlns="http://www.w3.org/2000/svg" xmlns:cc="http://creativecommons.org/ns#" xmlns:dc="http://purl.org/dc/elements/1.1/" xmlns:rdf="http://www.w3.org/1999/02/22-rdf-syntax-ns#">
 <metadata>
  <rdf:RDF>
   <cc:Work rdf:about="">
    <dc:format>image/svg+xml</dc:format>
    <dc:type rdf:resource="http://purl.org/dc/dcmitype/StillImage"/>
    <dc:title/>
   </cc:Work>
  </rdf:RDF>
 </metadata>
 <g fill="#363636">
  <path d="M4.5 8c-.28 0-.5.22-.5.5v4c0 .28.22.5.5.5h7c.28 0 .5-.22.5-.5v-4c0-.28-.22-.5-.5-.5zm1 1c.28 0 .5.22.5.5s-.22.5-.5.5-.5-.22-.5-.5.22-.5.5-.5zm2 0h3c.28 0 .5.22.5.5s-.22.5-.5.5h-3c-.28 0-.5-.22-.5-.5s.22-.5.5-.5zm-2 2c.28 0 .5.22.5.5s-.22.5-.5.5-.5-.22-.5-.5.22-.5.5-.5zm2 0h3c.28 0 .5.22.5.5s-.22.5-.5.5h-3c-.28 0-.5-.22-.5-.5s.22-.5.5-.5z"/>
  <path d="m10.826 0 4.1738 4.1738v-3.1738c0-0.554-0.446-1-1-1z" style="paint-order:stroke fill markers"/>
  <path d="m3 0c-1.0907 0-2 0.9093-2 2v12c0 1.0907 0.9093 2 2 2h10c1.0907 0 2-0.9093 2-2v-8a1.0001 1.0001 0 0 0-0.29297-0.70703l-5-5a1.0001 1.0001 0 0 0-0.70703-0.29297zm0 1h6l5 5v8c0 0.554-0.446 1-1 1h-10c-0.554 0-1-0.446-1-1v-12c0-0.554 0.446-1 1-1z" color="#000000" color-rendering="auto" dominant-baseline="auto" image-rendering="auto" shape-rendering="auto" solid-color="#000000" style="font-feature-settings:normal;font-variant-alternates:normal;font-variant-caps:normal;font-variant-ligatures:normal;font-variant-numeric:normal;font-variant-position:normal;isolation:auto;mix-blend-mode:normal;paint-order:stroke fill markers;shape-padding:0;text-decoration-color:#000000;text-decoration-line:none;text-decoration-style:solid;text-indent:0;text-orientation:mixed;text-transform:none;white-space:normal"/>
 </g>
</svg>

<?xml version="1.0" encoding="UTF-8" standalone="no"?>
<svg
   width="16"
   height="16"
   version="1.1"
   id="svg3"
   sodipodi:docname="libreoffice-impress-symbolic.svg"
   inkscape:version="1.4.2 (ebf0e940d0, 2025-05-08)"
   xmlns:inkscape="http://www.inkscape.org/namespaces/inkscape"
   xmlns:sodipodi="http://sodipodi.sourceforge.net/DTD/sodipodi-0.dtd"
   xmlns="http://www.w3.org/2000/svg"
   xmlns:svg="http://www.w3.org/2000/svg"
   xmlns:rdf="http://www.w3.org/1999/02/22-rdf-syntax-ns#"
   xmlns:cc="http://creativecommons.org/ns#"
   xmlns:dc="http://purl.org/dc/elements/1.1/">
  <defs
     id="defs3">
     <style id="current-color-scheme" type="text/css">
        .ColorScheme-Text { color:#363636; }
     </style>
  </defs>
  <sodipodi:namedview
     id="namedview3"
     pagecolor="#ffffff"
     bordercolor="#000000"
     borderopacity="0.25"
     inkscape:showpageshadow="2"
     inkscape:pageopacity="0.0"
     inkscape:pagecheckerboard="0"
     inkscape:deskcolor="#d1d1d1"
     inkscape:zoom="49.6875"
     inkscape:cx="8"
     inkscape:cy="8"
     inkscape:window-width="1920"
     inkscape:window-height="1010"
     inkscape:window-x="0"
     inkscape:window-y="0"
     inkscape:window-maximized="1"
     inkscape:current-layer="svg3" />
  <metadata
     id="metadata1">
    <rdf:RDF>
      <cc:Work
         rdf:about="">
        <dc:format>image/svg+xml</dc:format>
        <dc:type
           rdf:resource="http://purl.org/dc/dcmitype/StillImage" />
      </cc:Work>
    </rdf:RDF>
  </metadata>
  <path
     id="path1"
     style="fill:currentColor"
     class="ColorScheme-Text"
     d="M 3 0 C 1.9093 0 1 0.9093 1 2 L 1 14 C 1 15.0907 1.9093 16 3 16 L 13 16 C 14.0907 16 15 15.0907 15 14 L 15 6 A 1.0001 1.0001 0 0 0 14.707031 5.2929688 L 9.7070312 0.29296875 A 1.0001 1.0001 0 0 0 9 0 L 3 0 z M 10.826172 0 L 15 4.1738281 L 15 1 C 15 0.446 14.554 0 14 0 L 10.826172 0 z M 3 1 L 9 1 L 14 6 L 14 14 C 14 14.554 13.554 15 13 15 L 3 15 C 2.446 15 2 14.554 2 14 L 2 2 C 2 1.446 2.446 1 3 1 z M 4.5 8 C 4.22 8 4 8.22 4 8.5 L 4 12.5 C 4 12.78 4.22 13 4.5 13 L 11.5 13 C 11.78 13 12 12.78 12 12.5 L 12 8.5 C 12 8.22 11.78 8 11.5 8 L 4.5 8 z M 5.5 9 C 5.78 9 6 9.22 6 9.5 C 6 9.78 5.78 10 5.5 10 C 5.22 10 5 9.78 5 9.5 C 5 9.22 5.22 9 5.5 9 z M 7.5 9 L 10.5 9 C 10.78 9 11 9.22 11 9.5 C 11 9.78 10.78 10 10.5 10 L 7.5 10 C 7.22 10 7 9.78 7 9.5 C 7 9.22 7.22 9 7.5 9 z M 5.5 11 C 5.78 11 6 11.22 6 11.5 C 6 11.78 5.78 12 5.5 12 C 5.22 12 5 11.78 5 11.5 C 5 11.22 5.22 11 5.5 11 z M 7.5 11 L 10.5 11 C 10.78 11 11 11.22 11 11.5 C 11 11.78 10.78 12 10.5 12 L 7.5 12 C 7.22 12 7 11.78 7 11.5 C 7 11.22 7.22 11 7.5 11 z " />
</svg>
